assets/img/icon/github_white-24px.svg

<svg height="24" viewBox="0 0 24 24" width="24" xmlns="http://www.w3.org/2000/svg"><path d="m19.5697039 5.10955711c-.9375854-1.56643357-2.2100228-2.80652681-3.8173121-3.72027972s-3.3580866-1.37062937-5.261959-1.37062937c-1.90387244 0-3.6594533.45687646-5.26674259 1.37062937-1.6072893.91375291-2.87972666 2.15384615-3.81731208 3.72027972s-1.40637813 3.27738928-1.40637813 5.12820509c0 2.2284383.66492027 4.2284383 1.99954442 6.009324 1.33462414 1.7808858 3.05671982 3.0116551 5.17107061 3.6923077.24396356.0466201.42574032.0139861.5453303-.0932401.11958998-.1072261.17699317-.2377622.17699317-.4009324 0-.027972 0-.2657342-.0047836-.7179487-.0047836-.4522144-.0047836-.8484848-.0047836-1.1841492l-.31571754.0512821c-.20091116.037296-.45444191.051282-.75580866.04662-.30615034-.004662-.62186788-.037296-.94715262-.0932401-.33006833-.055944-.63143508-.1911421-.91366742-.4009324-.28223235-.2097902-.48314351-.4801864-.60273349-.8205128l-.13872437-.3076923c-.09088838-.2051282-.23439636-.4289044-.43052392-.6806527-.19612756-.2470862-.39225513-.4149184-.59316629-.5034965l-.09567198-.065268c-.06218679-.0466201-.12437357-.0979021-.17699316-.1585082-.05261959-.060606-.09567199-.1258741-.12437358-.1864802-.0287016-.060606-.0047836-.1118881.06697039-.1538461.07175398-.0419581.20569476-.0606061.39703872-.0606061l.27266515.0419581c.18177676.037296.40660592.1398601.67448747.3216783.26788155.1771562.48792711.4102564.66013667.6899767.21047836.3636363.46400912.6433566.75580866.8298368.29658314.1911422.59316629.2843823.89453303.2843823s.55968109-.02331.77972665-.0652681c.22004556-.04662.42095672-.1118881.61230068-.2004662.08132119-.5967366.30615035-1.053613.66970388-1.3706294-.5166287-.051282-.98542142-.1351981-1.40159454-.2377622-.41617312-.1072261-.84191344-.2797203-1.28200455-.5174825-.44009112-.2377623-.80842825-.5361306-1.10022779-.8904429-.29179955-.3543124-.5309795-.8205128-.71753987-1.3986014-.18656036-.5780886-.28223234-1.2400932-.28223234-1.995338 0-1.07226107.35876993-1.98601398 1.08109339-2.74125874-.33485193-.80652681-.30615034-1.71095571.09567198-2.71328671.26309795-.07925408.65535308-.01864802 1.17676538.18181818s.89931663.37296037 1.13849658.51282051c.23917996.13986014.43530752.26107226.57881549.35897436.84669704-.22843823 1.72209567-.34498834 2.6214123-.34498834.8993166 0 1.7747153.11655011 2.6214123.34498834l.5166287-.31701632c.3539863-.21445221.7749431-.41025641 1.2580866-.58741258.4831435-.17715618.8514806-.22843823 1.1050114-.14452215.4113895 1.002331.4448747 1.90675991.1100227 2.71328672.7175399.75524475 1.0810934 1.66899766 1.0810934 2.74125874 0 .75524479-.095672 1.42191139-.2822323 2.00466199-.1865604.5827506-.4257403 1.0489511-.7223235 1.3986014-.2965831.3496504-.6649203.6480187-1.1050114.8857809s-.870615.4149184-1.2820045.5174825c-.4161731.1072261-.8801823.1864802-1.4015946.2377623.4735764.4009324.7079727 1.030303.7079727 1.8881118v2.8065268c0 .1585082.0574032.2937063.1722096.4009324.1148064.1072262.2917995.1398602.5405467.0932401 2.1143508-.6853146 3.8364464-1.9160839 5.1710706-3.6923077 1.3346241-1.7808857 1.9995444-3.7808857 1.9995444-6.009324.0047836-1.85081581-.4640091-3.56177152-1.4015945-5.12820509z" fill="#fff" transform="translate(2 2)"/></svg>

<?xml version="1.0" encoding="UTF-8"?>
<svg width="24px" height="24px" viewBox="0 0 24 24" version="1.1" xmlns="http://www.w3.org/2000/svg" xmlns:xlink="http://www.w3.org/1999/xlink">
    <!-- Generator: Sketch 51.3 (57544) - http://www.bohemiancoding.com/sketch -->
    <title>github_white-24px</title>
    <desc>Created with Sketch.</desc>
    <defs></defs>
    <g id="github_white-24px" stroke="none" stroke-width="1" fill="none" fill-rule="evenodd">
        <g id="github" transform="translate(2.000000, 2.000000)" fill="#FFFFFF" fill-rule="nonzero">
            <path d="M19.5697039,5.10955711 C18.6321185,3.54312354 17.3596811,2.3030303 15.7523918,1.38927739 C14.1451025,0.475524476 12.3943052,0.0186480186 10.4904328,0.0186480186 C8.58656036,0.0186480186 6.8309795,0.475524476 5.22369021,1.38927739 C3.61640091,2.3030303 2.34396355,3.54312354 1.40637813,5.10955711 C0.468792711,6.67599068 2.13162821e-14,8.38694639 2.13162821e-14,10.2377622 C2.13162821e-14,12.4662005 0.664920273,14.4662005 1.99954442,16.2470862 C3.33416856,18.027972 5.05626424,19.2587413 7.17061503,19.9393939 C7.41457859,19.986014 7.59635535,19.95338 7.71594533,19.8461538 C7.83553531,19.7389277 7.8929385,19.6083916 7.8929385,19.4452214 C7.8929385,19.4172494 7.8929385,19.1794872 7.8881549,18.7272727 C7.8833713,18.2750583 7.8833713,17.8787879 7.8833713,17.5431235 L7.56765376,17.5944056 C7.3667426,17.6317016 7.11321185,17.6456876 6.8118451,17.6410256 C6.50569476,17.6363636 6.18997722,17.6037296 5.86469248,17.5477855 C5.53462415,17.4918415 5.2332574,17.3566434 4.95102506,17.1468531 C4.66879271,16.9370629 4.46788155,16.6666667 4.34829157,16.3263403 L4.2095672,16.018648 C4.11867882,15.8135198 3.97517084,15.5897436 3.77904328,15.3379953 C3.58291572,15.0909091 3.38678815,14.9230769 3.18587699,14.8344988 L3.09020501,14.7692308 C3.02801822,14.7226107 2.96583144,14.6713287 2.91321185,14.6107226 C2.86059226,14.5501166 2.81753986,14.4848485 2.78883827,14.4242424 C2.76013667,14.3636364 2.78405467,14.3123543 2.85580866,14.2703963 C2.92756264,14.2284382 3.06150342,14.2097902 3.25284738,14.2097902 L3.52551253,14.2517483 C3.70728929,14.2890443 3.93211845,14.3916084 4.2,14.5734266 C4.46788155,14.7505828 4.68792711,14.983683 4.86013667,15.2634033 C5.07061503,15.6270396 5.32414579,15.9067599 5.61594533,16.0932401 C5.91252847,16.2843823 6.20911162,16.3776224 6.51047836,16.3776224 C6.8118451,16.3776224 7.07015945,16.3543124 7.29020501,16.3123543 C7.51025057,16.2657343 7.71116173,16.2004662 7.90250569,16.1118881 C7.98382688,15.5151515 8.20865604,15.0582751 8.57220957,14.7412587 C8.05558087,14.6899767 7.58678815,14.6060606 7.17061503,14.5034965 C6.75444191,14.3962704 6.32870159,14.2237762 5.88861048,13.986014 C5.44851936,13.7482517 5.08018223,13.4498834 4.78838269,13.0955711 C4.49658314,12.7412587 4.25740319,12.2750583 4.07084282,11.6969697 C3.88428246,11.1188811 3.78861048,10.4568765 3.78861048,9.7016317 C3.78861048,8.62937063 4.14738041,7.71561772 4.86970387,6.96037296 C4.53485194,6.15384615 4.56355353,5.24941725 4.96537585,4.24708625 C5.2284738,4.16783217 5.62072893,4.22843823 6.14214123,4.42890443 C6.66355353,4.62937063 7.04145786,4.8018648 7.28063781,4.94172494 C7.51981777,5.08158508 7.71594533,5.2027972 7.8594533,5.3006993 C8.70615034,5.07226107 9.58154897,4.95571096 10.4808656,4.95571096 C11.3801822,4.95571096 12.2555809,5.07226107 13.1022779,5.3006993 L13.6189066,4.98368298 C13.9728929,4.76923077 14.3938497,4.57342657 14.8769932,4.3962704 C15.3601367,4.21911422 15.7284738,4.16783217 15.9820046,4.25174825 C16.3933941,5.25407925 16.4268793,6.15850816 16.0920273,6.96503497 C16.8095672,7.72027972 17.1731207,8.63403263 17.1731207,9.70629371 C17.1731207,10.4615385 17.0774487,11.1282051 16.8908884,11.7109557 C16.704328,12.2937063 16.4651481,12.7599068 16.1685649,13.1095571 C15.8719818,13.4592075 15.5036446,13.7575758 15.0635535,13.995338 C14.6234624,14.2331002 14.1929385,14.4102564 13.781549,14.5128205 C13.3653759,14.6200466 12.9013667,14.6993007 12.3799544,14.7505828 C12.8535308,15.1515152 13.0879271,15.7808858 13.0879271,16.6386946 L13.0879271,19.4452214 C13.0879271,19.6037296 13.1453303,19.7389277 13.2601367,19.8461538 C13.3749431,19.95338 13.5519362,19.986014 13.8006834,19.9393939 C15.9150342,19.2540793 17.6371298,18.02331 18.971754,16.2470862 C20.3063781,14.4662005 20.9712984,12.4662005 20.9712984,10.2377622 C20.976082,8.38694639 20.5072893,6.67599068 19.5697039,5.10955711 Z" id="Shape"></path>
        </g>
    </g>
</svg>
